assets/logos/exodus.svg

<svg fill="none" height="300" viewBox="0 0 300 300" width="300" xmlns="http://www.w3.org/2000/svg" xmlns:xlink="http://www.w3.org/1999/xlink"><linearGradient id="a" gradientUnits="userSpaceOnUse" x1="256.875" x2="171.3" y1="320.625" y2="-32.9459"><stop offset="0" stop-color="#0b46f9"/><stop offset="1" stop-color="#bbfbe0"/></linearGradient><linearGradient id="b" gradientUnits="userSpaceOnUse" x1="22.5002" x2="170.625" y1="67.5" y2="178.125"><stop offset=".119792" stop-color="#8952ff" stop-opacity=".87"/><stop offset="1" stop-color="#dabdff" stop-opacity="0"/></linearGradient><mask id="c" height="300" maskUnits="userSpaceOnUse" width="296" x="3" y="0"><path d="m298.204 83.7645-127.754-83.7645v46.8332l81.955 53.2558-9.642 30.509h-72.313v38.804h72.313l9.642 30.509-81.955 53.256v46.833l127.754-83.497-20.891-66.369z" fill="url(#a)"/><path d="m59.301 169.402h72.046v-38.804h-72.3138l-9.374-30.509 81.6878-53.2558v-46.8332l-127.75423 83.7645 20.89063 66.3695-20.89063 66.369 128.02223 83.497v-46.833l-81.9558-53.256z" fill="url(#a)"/></mask><path d="m298.203 83.7645-127.754-83.7645v46.8332l81.956 53.2558-9.642 30.509h-72.314v38.804h72.314l9.642 30.509-81.956 53.256v46.833l127.754-83.497-20.89-66.369z" fill="url(#a)"/><path d="m59.3007 169.402h72.0453v-38.804h-72.3131l-9.374-30.509 81.6871-53.2558v-46.8332l-127.75347 83.7645 20.89057 66.3695-20.89057 66.369 128.02147 83.497v-46.833l-81.9551-53.256z" fill="url(#a)"/><g mask="url(#c)"><path d="m3.75024 0h292.5v300h-292.5z" fill="url(#b)"/></g></svg>

<svg width="300" height="300" viewBox="0 0 300 300" fill="none" xmlns="http://www.w3.org/2000/svg">
<path d="M298.203 83.7645L170.449 0V46.8332L252.405 100.089L242.763 130.598H170.449V169.402H242.763L252.405 199.911L170.449 253.167V300L298.203 216.503L277.313 150.134L298.203 83.7645Z" fill="url(#paint0_linear_1661_295)"/>
<path d="M59.3007 169.402H131.346V130.598H59.0329L49.6589 100.089L131.346 46.8332V0L3.59253 83.7645L24.4831 150.134L3.59253 216.503L131.614 300V253.167L49.6589 199.911L59.3007 169.402Z" fill="url(#paint1_linear_1661_295)"/>
<mask id="mask0_1661_295" style="mask-type:alpha" maskUnits="userSpaceOnUse" x="3" y="0" width="296" height="300">
<path d="M298.204 83.7645L170.45 0V46.8332L252.405 100.089L242.763 130.598H170.45V169.402H242.763L252.405 199.911L170.45 253.167V300L298.204 216.503L277.313 150.134L298.204 83.7645Z" fill="url(#paint2_linear_1661_295)"/>
<path d="M59.301 169.402H131.347V130.598H59.0332L49.6592 100.089L131.347 46.8332V0L3.59277 83.7645L24.4834 150.134L3.59277 216.503L131.615 300V253.167L49.6592 199.911L59.301 169.402Z" fill="url(#paint3_linear_1661_295)"/>
</mask>
<g mask="url(#mask0_1661_295)">
<rect x="3.75024" width="292.5" height="300" fill="url(#paint4_linear_1661_295)"/>
</g>
<defs>
<linearGradient id="paint0_linear_1661_295" x1="256.875" y1="320.625" x2="171.3" y2="-32.9459" gradientUnits="userSpaceOnUse">
<stop stop-color="#0B46F9"/>
<stop offset="1" stop-color="#BBFBE0"/>
</linearGradient>
<linearGradient id="paint1_linear_1661_295" x1="256.875" y1="320.625" x2="171.3" y2="-32.9459" gradientUnits="userSpaceOnUse">
<stop stop-color="#0B46F9"/>
<stop offset="1" stop-color="#BBFBE0"/>
</linearGradient>
<linearGradient id="paint2_linear_1661_295" x1="256.875" y1="320.625" x2="171.3" y2="-32.9459" gradientUnits="userSpaceOnUse">
<stop stop-color="#0B46F9"/>
<stop offset="1" stop-color="#BBFBE0"/>
</linearGradient>
<linearGradient id="paint3_linear_1661_295" x1="256.875" y1="320.625" x2="171.3" y2="-32.9459" gradientUnits="userSpaceOnUse">
<stop stop-color="#0B46F9"/>
<stop offset="1" stop-color="#BBFBE0"/>
</linearGradient>
<linearGradient id="paint4_linear_1661_295" x1="22.5002" y1="67.5" x2="170.625" y2="178.125" gradientUnits="userSpaceOnUse">
<stop offset="0.119792" stop-color="#8952FF" stop-opacity="0.87"/>
<stop offset="1" stop-color="#DABDFF" stop-opacity="0"/>
</linearGradient>
</defs>
</svg>
